images/logo/bhromaon.svg

<svg width="293" height="39" viewBox="0 0 293 39" fill="none" xmlns="http://www.w3.org/2000/svg">
<path d="M10.928 1.672C14.608 1.672 17.536 2.424 19.712 3.928C21.888 5.4 22.976 7.608 22.976 10.552C22.976 12.728 22.432 14.552 21.344 16.024C20.288 17.464 18.832 18.552 16.976 19.288C15.152 19.992 13.056 20.344 10.688 20.344L9.584 16.6C12.496 16.6 15.072 17 17.312 17.8C19.584 18.6 21.376 19.752 22.688 21.256C24 22.728 24.656 24.504 24.656 26.584C24.656 28.504 24.304 30.136 23.6 31.48C22.928 32.792 22 33.864 20.816 34.696C19.664 35.496 18.352 36.088 16.88 36.472C15.408 36.824 13.888 37 12.32 37H0.56V1.672H10.928ZM11.744 16.12C13.12 16.12 14.128 15.704 14.768 14.872C15.44 14.04 15.776 13.096 15.776 12.04C15.776 10.824 15.36 9.912 14.528 9.304C13.728 8.696 12.64 8.392 11.264 8.392H7.52V16.12H11.744ZM11.984 30.52C13.008 30.52 13.936 30.392 14.768 30.136C15.6 29.848 16.256 29.416 16.736 28.84C17.216 28.232 17.456 27.48 17.456 26.584C17.456 25.56 17.168 24.792 16.592 24.28C16.016 23.736 15.264 23.368 14.336 23.176C13.44 22.952 12.496 22.84 11.504 22.84H7.52V30.52H11.984ZM61.3501 1.672V37H54.3901V22.648H38.5981V37H31.6381V1.672H38.5981V15.928H54.3901V1.672H61.3501ZM81.1546 1.672C83.3626 1.672 85.3306 1.96 87.0586 2.536C88.7866 3.08 90.2266 3.88 91.3786 4.936C92.5626 5.96 93.4586 7.208 94.0666 8.68C94.6746 10.12 94.9786 11.752 94.9786 13.576C94.9786 15.016 94.7546 16.456 94.3066 17.896C93.8906 19.336 93.1866 20.648 92.1946 21.832C91.2346 23.016 89.9546 23.976 88.3546 24.712C86.7546 25.416 84.7706 25.768 82.4026 25.768H77.4106V37H70.4506V1.672H81.1546ZM82.3546 19.048C83.4106 19.048 84.2906 18.872 84.9946 18.52C85.6986 18.168 86.2426 17.72 86.6266 17.176C87.0426 16.632 87.3306 16.072 87.4906 15.496C87.6826 14.888 87.7786 14.328 87.7786 13.816C87.7786 13.432 87.7146 12.952 87.5866 12.376C87.4906 11.768 87.2666 11.16 86.9146 10.552C86.5626 9.944 86.0186 9.432 85.2826 9.016C84.5786 8.6 83.6186 8.392 82.4026 8.392H77.4106V19.048H82.3546ZM88.8826 23.368L97.6186 37H89.5066L80.5786 23.56L88.8826 23.368ZM99.9781 19.384C99.9781 16.952 100.442 14.648 101.37 12.472C102.298 10.296 103.578 8.376 105.21 6.712C106.874 5.016 108.794 3.688 110.97 2.728C113.146 1.768 115.482 1.288 117.978 1.288C120.442 1.288 122.762 1.768 124.938 2.728C127.114 3.688 129.034 5.016 130.698 6.712C132.394 8.376 133.706 10.296 134.634 12.472C135.594 14.648 136.074 16.952 136.074 19.384C136.074 21.88 135.594 24.216 134.634 26.392C133.706 28.568 132.394 30.488 130.698 32.152C129.034 33.784 127.114 35.064 124.938 35.992C122.762 36.92 120.442 37.384 117.978 37.384C115.482 37.384 113.146 36.92 110.97 35.992C108.794 35.064 106.874 33.784 105.21 32.152C103.578 30.488 102.298 28.568 101.37 26.392C100.442 24.216 99.9781 21.88 99.9781 19.384ZM107.178 19.384C107.178 20.952 107.45 22.424 107.994 23.8C108.57 25.144 109.354 26.344 110.346 27.4C111.37 28.424 112.538 29.224 113.85 29.8C115.194 30.376 116.65 30.664 118.218 30.664C119.722 30.664 121.114 30.376 122.394 29.8C123.706 29.224 124.842 28.424 125.802 27.4C126.762 26.344 127.514 25.144 128.058 23.8C128.602 22.424 128.874 20.952 128.874 19.384C128.874 17.784 128.586 16.296 128.01 14.92C127.466 13.544 126.698 12.344 125.706 11.32C124.746 10.264 123.61 9.448 122.298 8.872C120.986 8.296 119.562 8.008 118.026 8.008C116.49 8.008 115.066 8.296 113.754 8.872C112.442 9.448 111.29 10.264 110.298 11.32C109.306 12.344 108.538 13.544 107.994 14.92C107.45 16.296 107.178 17.784 107.178 19.384ZM143.013 37V0.231998H143.061L162.693 28.072L159.717 27.4L179.301 0.231998H179.397V37H172.437V15.928L172.869 19.528L160.917 36.52H160.821L148.533 19.528L149.733 16.216V37H143.013ZM184.545 37L200.481 0.279998H200.865L216.801 37H208.737L198.561 11.176L203.601 7.72L191.409 37H184.545ZM195.441 24.232H206.049L208.497 30.088H193.281L195.441 24.232ZM217.353 19.384C217.353 16.952 217.817 14.648 218.745 12.472C219.673 10.296 220.953 8.376 222.585 6.712C224.249 5.016 226.169 3.688 228.345 2.728C230.521 1.768 232.857 1.288 235.353 1.288C237.817 1.288 240.137 1.768 242.313 2.728C244.489 3.688 246.409 5.016 248.073 6.712C249.769 8.376 251.081 10.296 252.009 12.472C252.969 14.648 253.449 16.952 253.449 19.384C253.449 21.88 252.969 24.216 252.009 26.392C251.081 28.568 249.769 30.488 248.073 32.152C246.409 33.784 244.489 35.064 242.313 35.992C240.137 36.92 237.817 37.384 235.353 37.384C232.857 37.384 230.521 36.92 228.345 35.992C226.169 35.064 224.249 33.784 222.585 32.152C220.953 30.488 219.673 28.568 218.745 26.392C217.817 24.216 217.353 21.88 217.353 19.384ZM224.553 19.384C224.553 20.952 224.825 22.424 225.369 23.8C225.945 25.144 226.729 26.344 227.721 27.4C228.745 28.424 229.913 29.224 231.225 29.8C232.569 30.376 234.025 30.664 235.593 30.664C237.097 30.664 238.489 30.376 239.769 29.8C241.081 29.224 242.217 28.424 243.177 27.4C244.137 26.344 244.889 25.144 245.433 23.8C245.977 22.424 246.249 20.952 246.249 19.384C246.249 17.784 245.961 16.296 245.385 14.92C244.841 13.544 244.073 12.344 243.081 11.32C242.121 10.264 240.985 9.448 239.673 8.872C238.361 8.296 236.937 8.008 235.401 8.008C233.865 8.008 232.441 8.296 231.129 8.872C229.817 9.448 228.665 10.264 227.673 11.32C226.681 12.344 225.913 13.544 225.369 14.92C224.825 16.296 224.553 17.784 224.553 19.384ZM292.02 38.44L265.236 14.248L267.3 15.4L267.444 37H260.388V0.279998H260.676L286.884 24.376L285.348 23.704L285.204 1.672H292.212V38.44H292.02Z" fill="white"/>
</svg>

<svg width="293" height="39" viewBox="0 0 293 39" fill="none" xmlns="http://www.w3.org/2000/svg"><path d="M10.928 1.672c3.68 0 6.608.752 8.784 2.256 2.176 1.472 3.264 3.68 3.264 6.624 0 2.176-.544 4-1.632 5.472-1.056 1.44-2.512 2.528-4.368 3.264-1.824.704-3.92 1.056-6.288 1.056L9.584 16.6c2.912 0 5.488.4 7.728 1.2 2.272.8 4.064 1.952 5.376 3.456 1.312 1.472 1.968 3.248 1.968 5.328 0 1.92-.352 3.552-1.056 4.896a8.732 8.732 0 0 1-2.784 3.216c-1.152.8-2.464 1.392-3.936 1.776a19.54 19.54 0 0 1-4.56.528H.56V1.672h10.368Zm.816 14.448c1.376 0 2.384-.416 3.024-1.248a4.386 4.386 0 0 0 1.008-2.832c0-1.216-.416-2.128-1.248-2.736-.8-.608-1.888-.912-3.264-.912H7.52v7.728h4.224Zm.24 14.4c1.024 0 1.952-.128 2.784-.384.832-.288 1.488-.72 1.968-1.296.48-.608.72-1.36.72-2.256 0-1.024-.288-1.792-.864-2.304-.576-.544-1.328-.912-2.256-1.104a11.638 11.638 0 0 0-2.832-.336H7.52v7.68h4.464ZM61.35 1.672V37h-6.96V22.648H38.598V37h-6.96V1.672h6.96v14.256H54.39V1.672h6.96Zm19.805 0c2.208 0 4.176.288 5.904.864 1.728.544 3.168 1.344 4.32 2.4a9.847 9.847 0 0 1 2.688 3.744c.608 1.44.912 3.072.912 4.896 0 1.44-.224 2.88-.672 4.32a10.698 10.698 0 0 1-2.112 3.936c-.96 1.184-2.24 2.144-3.84 2.88-1.6.704-3.584 1.056-5.952 1.056H77.41V37h-6.96V1.672h10.704Zm1.2 17.376c1.056 0 1.936-.176 2.64-.528.704-.352 1.248-.8 1.632-1.344.416-.544.704-1.104.864-1.68.192-.608.288-1.168.288-1.68 0-.384-.064-.864-.192-1.44a5.282 5.282 0 0 0-.672-1.824c-.352-.608-.896-1.12-1.632-1.536-.704-.416-1.664-.624-2.88-.624H77.41v10.656h4.944Zm6.528 4.32L97.619 37h-8.112l-8.928-13.44 8.304-.192Zm11.095-3.984c0-2.432.464-4.736 1.392-6.912a18.53 18.53 0 0 1 3.84-5.76 18.404 18.404 0 0 1 5.76-3.984c2.176-.96 4.512-1.44 7.008-1.44 2.464 0 4.784.48 6.96 1.44a18.404 18.404 0 0 1 5.76 3.984 17.75 17.75 0 0 1 3.936 5.76c.96 2.176 1.44 4.48 1.44 6.912 0 2.496-.48 4.832-1.44 7.008a17.75 17.75 0 0 1-3.936 5.76 18.53 18.53 0 0 1-5.76 3.84c-2.176.928-4.496 1.392-6.96 1.392-2.496 0-4.832-.464-7.008-1.392a18.53 18.53 0 0 1-5.76-3.84 18.53 18.53 0 0 1-3.84-5.76c-.928-2.176-1.392-4.512-1.392-7.008Zm7.2 0c0 1.568.272 3.04.816 4.416a12.282 12.282 0 0 0 2.352 3.6 11.394 11.394 0 0 0 3.504 2.4c1.344.576 2.8.864 4.368.864 1.504 0 2.896-.288 4.176-.864a10.285 10.285 0 0 0 3.408-2.4 11.998 11.998 0 0 0 2.256-3.6c.544-1.376.816-2.848.816-4.416 0-1.6-.288-3.088-.864-4.464a10.844 10.844 0 0 0-2.304-3.6 9.972 9.972 0 0 0-3.408-2.448c-1.312-.576-2.736-.864-4.272-.864s-2.96.288-4.272.864a10.476 10.476 0 0 0-3.456 2.448 10.844 10.844 0 0 0-2.304 3.6c-.544 1.376-.816 2.864-.816 4.464ZM143.013 37V.232h.048l19.632 27.84-2.976-.672L179.301.232h.096V37h-6.96V15.928l.432 3.6-11.952 16.992h-.096l-12.288-16.992 1.2-3.312V37h-6.72Zm41.532 0L200.481.28h.384L216.801 37h-8.064l-10.176-25.824 5.04-3.456L191.409 37h-6.864Zm10.896-12.768h10.608l2.448 5.856h-15.216l2.16-5.856Zm21.912-4.848c0-2.432.464-4.736 1.392-6.912a18.53 18.53 0 0 1 3.84-5.76 18.404 18.404 0 0 1 5.76-3.984c2.176-.96 4.512-1.44 7.008-1.44 2.464 0 4.784.48 6.96 1.44a18.404 18.404 0 0 1 5.76 3.984 17.75 17.75 0 0 1 3.936 5.76c.96 2.176 1.44 4.48 1.44 6.912 0 2.496-.48 4.832-1.44 7.008a17.75 17.75 0 0 1-3.936 5.76 18.53 18.53 0 0 1-5.76 3.84c-2.176.928-4.496 1.392-6.96 1.392-2.496 0-4.832-.464-7.008-1.392a18.53 18.53 0 0 1-5.76-3.84 18.53 18.53 0 0 1-3.84-5.76c-.928-2.176-1.392-4.512-1.392-7.008Zm7.2 0c0 1.568.272 3.04.816 4.416a12.282 12.282 0 0 0 2.352 3.6 11.394 11.394 0 0 0 3.504 2.4c1.344.576 2.8.864 4.368.864 1.504 0 2.896-.288 4.176-.864a10.285 10.285 0 0 0 3.408-2.4 11.998 11.998 0 0 0 2.256-3.6c.544-1.376.816-2.848.816-4.416 0-1.6-.288-3.088-.864-4.464a10.844 10.844 0 0 0-2.304-3.6 9.972 9.972 0 0 0-3.408-2.448c-1.312-.576-2.736-.864-4.272-.864s-2.96.288-4.272.864a10.476 10.476 0 0 0-3.456 2.448 10.844 10.844 0 0 0-2.304 3.6c-.544 1.376-.816 2.864-.816 4.464ZM292.02 38.44l-26.784-24.192L267.3 15.4l.144 21.6h-7.056V.28h.288l26.208 24.096-1.536-.672-.144-22.032h7.008V38.44h-.192Z" fill="#fff"/></svg>
